X:34
T:Jigg,A
M:6/4
L:1/4
Q:3/4=85
S:D.Wright, Extraordinary Collection, London 1713
Z:Pete Stewart, 2004 <www.hornpipemusic.co.uk>
K:Amin
a | g>abe2d/B/ | c>deaga | B2dd>ef | eg2B>cd | edcBc^G | A3A,2 ||
c/B/ | c2de>fg | ^f^gag.ab | e3g2e/c/ | B2cd>cB | a^gae>a^g | a3A2 |]

